X: 1
T: Sonny's
M: 3/4
L: 1/8
R: mazurka
K: Gmaj
|: GE |DG GF GB | DB BA Bd | cB AG FG | AG FE D2|
DG GF GB | DB BA Bd | cB AG FG| A2 G2 :|
|: Bc |d2 de dc |BA G2 AB |c2 cd cB | A3 A Bc |
d2 de dc | BA G2 AB | cB AG FA | A2 G2 :|
